X:113
T:Ally Croaker. Ru2.113
%%VWML:RutherfordVol2-2249-p57-0
F:http://www.vwml.org/record/RutherfordVol2/2249/p57
B:RUTHERFORD Complete Collection of 200 Country Dances Vol.2; 1759.
Z:vmp.Mike Hicken 2015 www.village-music-project.org.uk
N: The final symbol of dance notation in the original is :|
M:2/4
Q:1/4=140
K:G
|:G2 G>G|G2G2|AGFG|A>Bcd|BGGG|G3G|A>GFG |A>Bc2|
{Bc}d2dd|d3d|edcB|ABc2|{AB}c2cc|c3c|dcBA|GAB2|
G2G>G|F2GF|E2FE|D2D2|c2c>c|{c}B2 Ac|BGcA|F2G2 :|
W:
W: The first Man sets to the 2d Wo: & not turn .|  the
W: first Wo: to the 2d Man & not turn :|  cross over
W: two Cu: .|.  Lead to the top & cast off :|.  Foot it
W: Corners & not turn :|  Lead out sides :|
T:Settee. Ru2.114, The
L:1/8
B:RUTHERFORD Complete Collection of 200 Country Dances Vol.2; 1759.
Z:vmp.Mike Hicken 2015 www.village-music-project.org.uk
M:6/8
Q:3/8=120
K:F
F3c3|AcA FGA|B3d3|BdB GAB|A3c3|
faf def|ege cde|fed cdB|B3A3:|
|: c3g3|ege cde|f3a3|faf def|g3b3|
agf edc|BdB GAB|AcA FGA|Gba gfe|{e}f6 :|
W:
W: The first Cu: cast off one Cu & foot it with the 3d
W: & Right Hands across all 4 .|  Cast up again foot
W: it & Left Hands across with the 2d Cu: :|  cross
W: over two Cu: & turn .|.  Lead to the top foot it & cast
W: off :|.
